!!!COM: Nanino, Giovanni Maria
!!!CDT: 1543///-1607/03/11/
!!!OTL: Artifex mirus
!!!OTL2: Erano i capei d'or
!!!ONM: No. 19
!!!SMS: Musica tolta da i madrigali di Claudio Monteverdi, e d'altri autori, e fatta spirituale
!!!PPR: A. Coppini, ed.
!!!PPP: Milan
!!!PDT: 1607
!!!URL: http://www.jpj.dk/coppini.htm
!!!AIN: contrafacta
**kern	**kern	**kern	**kern	**kern
*staff5	*staff4	*staff3	*staff2	*staff1
*Ivox	*Ivox	*Ivox	*Ivox	*Ivox
!basso	!tenore	!alto	!quinto	!canto
*clefF4	*clefGv2	*clefG2	*clefG2	*clefG2
*k[]	*k[]	*k[]	*k[]	*k[]
*M4/4	*M4/4	*M4/4	*M4/4	*M4/4
*MM120	*MM120	*MM120	*MM120	*MM120
=1-	=1-	=1-	=1-	=1-
1r	2.A/	2.e/	2.a/	2.cc#\
.	4A/	4e/	4a/	4cc#\
=2	=2	=2	=2	=2
1r	2A/	2e/	2a/	2cc#\
.	[2G/	[2g/	[2b\	[2dd\
=3	=3	=3	=3	=3
1r	2G/]	2g/]	2b\]	2dd\]
.	2F/	2a/	2cc\	2ff\
=4	=4	=4	=4	=4
1r	2c\	2g/	2cc\	2ee\
.	2A/	2cc\	4r	2ee\
.	.	.	4a/	.
=5	=5	=5	=5	=5
1r	4e\	4b\	4g#/	4ee\
.	4f\	2a/	4a/	4dd\
.	2e\	.	2b\	2ee\
.	.	4g#/	.	.
=6	=6	=6	=6	=6
1r	1A	2a/	2cc#\	2ee\
.	.	2a/	2cc#\	4r
.	.	.	.	4ee\
=7	=7	=7	=7	=7
1r	1r	4dd\	4dd\	4ff\
.	.	4cc\	4ee\	4ee\
.	.	4b-\	4ff\	4dd\
.	.	4g/	4gg\	4dd\
=8	=8	=8	=8	=8
1r	1r	2a/	2ee\	2cc#\
.	.	4d/	4ff#\	4dd\
.	.	[4e/	[4gg\	4b\
=9	=9	=9	=9	=9
1r	1r	4e/]	4gg\]	4cc#\
.	.	4d/	4ff\	4.dd\
.	.	2a/	2ee\	.
.	.	.	.	16cc#\LL
.	.	.	.	16b\JJ
.	.	.	.	4cc#\
=10	=10	=10	=10	=10
4r	4r	2d/	4dd\	4dd\
4D\	4d\	.	4ff\	4a/
4d\	4d\	2r	4ff\	4a/
4c\	4e\	.	4ee\	4a/
=11	=11	=11	=11	=11
4B-\	4f\	1r	4dd\	4b-\
4G\	4g\	.	4dd\	4b-\
2A\	2e\	.	2cc#\	2a/
=12	=12	=12	=12	=12
4D\	4f#\	1r	2dd\	4a/
2G\	2g\	.	.	4b\
.	.	.	4b-\	4dd\
4D\	4fn\	.	4a/	4dd\
=13	=13	=13	=13	=13
2A\	2e\	1r	2a/	2cc#\
2D\	2d\	.	2a/	2dd\
=14	=14	=14	=14	=14
4r	4r	4r	4r	4r
4C/	4G/	4g/	4cc\	4ee\
4C/	4G/	4g/	4cc\	4ee\
4C/	4c\	4g/	4cc\	4ee\
=15	=15	=15	=15	=15
2F\	2c\	2a/	2cc\	2ff\
2C/	2c\	2g/	2cc\	2ee\
=16	=16	=16	=16	=16
4G\	4d\	4g/	4b-\	4dd\
4G\	4d\	4g/	4b-\	4dd\
4G\	4d\	4g/	4b-\	4dd\
4D\	4d\	4f#/	4a/	4dd\
=17	=17	=17	=17	=17
2G\	2d\	2g/	2b-\	2dd\
2D\	4d\	2f#/	2a/	4dd\
.	4a\	.	.	4dd\
=18	=18	=18	=18	=18
1r	4g\	2r	4r	4ee\
.	4f\	.	4a/	4ff\
.	2e\	4r	4b\	2gg\
.	.	4g/	4cc\	.
=19	=19	=19	=19	=19
1r	2d\	4a/	2dd\	2ff\
.	.	4b\	.	.
.	[2c\	2cc\	[2g/	[2ee\
=20	=20	=20	=20	=20
1r	2c\]	4g/	2g/]	2ee\]
.	.	2cc\	.	.
.	2A/	.	4r	2ee\
.	.	4cc\	[4a/	.
=21	=21	=21	=21	=21
1r	2c\	2cc\	4a/]	2ee\
.	.	.	4g/	.
.	2d\	4b-\	4f/	2dd\
.	.	[4a/	4ff\	.
=22	=22	=22	=22	=22
1r	1e	4a/]	1ee	1b
.	.	8g#/L	.	.
.	.	8f#/J	.	.
.	.	2g#/	.	.
=23	=23	=23	=23	=23
2r	2A/	2a/	2cc#\	2a/
2A\	2c\	2a/	2ee\	4r
.	.	.	.	4a/
=24	=24	=24	=24	=24
2G#\	2B\	2.e/	2ee\	2b\
2A\	2c\	.	2ee\	2a/
.	.	4A/	.	.
=25	=25	=25	=25	=25
2F\	2A/	2c/	2ff\	4a/
.	.	.	.	4cc\
2D\	4r	2d/	2ff\	4b-\
.	4A/	.	.	[4a/
=26	=26	=26	=26	=26
1E	2e\	1B	1ee	4a/]
.	.	.	.	8g#/L
.	.	.	.	8f#/J
.	2e\	.	.	2g#/
=27	=27	=27	=27	=27
2A\	2.c\	2A/	2ee\	2a/
[2F\	.	[2a/	[2ff\	[2cc\
.	4c\	.	.	.
=28	=28	=28	=28	=28
4F\]	2A/	4a/]	4ff\]	4cc\]
4C/	.	4g/	4ee\	4cc\
2D\	2A/	2f/	2dd\	2a/
=29	=29	=29	=29	=29
1A	2r	2e/	2cc#\	2a/
.	2A/	2e/	4r	4r
.	.	.	4cc#\	4a/
=30	=30	=30	=30	=30
1r	2G/	2g/	2dd\	2b\
.	4r	4r	4r	4r
.	4c\	4g/	4ee\	4cc\
=31	=31	=31	=31	=31
1r	4c\	4g/	4ee\	4cc\
.	4c\	4g/	4ee\	4cc\
.	2f\	2a/	2ff\	2cc\
=32	=32	=32	=32	=32
1r	4c\	4g/	4ee\	4cc\
.	2d\	2f/	2dd\	2a/
.	4A/	4e/	4cc#\	4a/
=33	=33	=33	=33	=33
1r	2B-\	2d/	2dd\	2g/
.	2A/	2e/	2cc#\	2a/
=34	=34	=34	=34	=34
2r	2r	2r	2r	2r
2D\	2d\	2f#/	2dd\	2a/
=35	=35	=35	=35	=35
4G\	4d\	1g	2dd\	4b\
4.G\	4.d\	.	.	4.b\
.	.	.	4r	.
8G\	8d\	.	.	8b\
4G\	4G/	.	4dd\	4b\
=36	=36	=36	=36	=36
1F	2c\	2a/	4ff\	2cc\
.	.	.	4.ff\	.
.	4c\	4a/	.	[2cc\
.	.	.	8ff\	.
.	[4c\	4a/	4ff\	.
=37	=37	=37	=37	=37
2C/	4c\]	2g/	2ee\	2cc\]
.	4G/	.	.	.
8D\L	4d\	2f/	2dd\	[2a/
8E\J	.	.	.	.
8F\L	4A/	.	.	.
8G\J	.	.	.	.
=38	=38	=38	=38	=38
4A\	1r	4e/	4cc#\	4a/]
4B\	.	4d/	2dd\	4g/
2A\	.	2e/	.	2a/
.	.	.	4cc#\	.
=39	=39	=39	=39	=39
1D	2r	1f#	2dd\	2a/
.	2a\	.	4r	4r
.	.	.	4a/	4dd\
=40	=40	=40	=40	=40
1r	4g\	4r	8b\	4ee\
.	.	.	8cc\	.
.	4f\	4a/	4.dd\	4ff\
.	2e\	4.g/	.	[2gg\
.	.	.	8cc#\	.
.	.	.	4cc#\	.
.	.	8a/	.	.
=41	=41	=41	=41	=41
2r	1d	2b-\	2dd\	2gg\]
4r	.	4a/	4r	2ff#\
4d\	.	4d/	4a/	.
=42	=42	=42	=42	=42
4c\	4r	8e/	4a/	1r
.	.	8f/	.	.
4B\	4d\	4.g/	4b\	.
2A\	4e\	.	[2cc\	.
.	.	8f#/	.	.
.	4c\	4f#/	.	.
=43	=43	=43	=43	=43
1G	2e\	1g	2cc\]	1r
.	2d\	.	2b\	.
=44	=44	=44	=44	=44
1r	4.e\	4.g/	4.b\	1r
.	8c\	8g/	8cc\	.
.	8d\	8f#/	8a/	.
.	8A/	8a/	8cc\	.
.	4e\	4g#/	4b\	.
=45	=45	=45	=45	=45
4r	4A/	4a/	4a/	4r
4.A\	4.e\	4.a/	4.cc\	4.ee\
8F\	8f\	8a/	8a/	8dd\
8G\	8d\	8g/	8b-\	8dd\
8D\	8d\	8f/	8a/	8dd\
=46	=46	=46	=46	=46
1A	2e\	1e	1a	1cc#
.	2A/	.	.	.
=47	=47	=47	=47	=47
1D	2r	2f#/	2a/	2dd\
.	2d\	2f#/	4r	4r
.	.	.	4a/	4dd\
=48	=48	=48	=48	=48
1r	2c\	2g/	2cc\	2ee\
.	4r	4r	4r	4r
.	4c\	4g/	4cc\	4ee\
=49	=49	=49	=49	=49
1r	4c\	4g/	4cc\	4ee\
.	4c\	4g/	4cc\	4ee\
.	2f\	2a/	2cc\	2ff\
=50	=50	=50	=50	=50
1r	4c\	4g/	4cc\	4ee\
.	2d\	2f/	2a/	2dd\
.	4A/	4e/	4a/	4cc#\
=51	=51	=51	=51	=51
1r	2B-\	2d/	2g/	2dd\
.	2A/	2e/	2a/	2cc#\
=52	=52	=52	=52	=52
2r	2r	2r	2r	2r
2D\	2d\	2f#/	2a/	2dd\
=53	=53	=53	=53	=53
4G\	4d\	1g	4b\	2dd\
4.G\	4.d\	.	4.b\	.
.	.	.	.	4r
8G\	8d\	.	8b\	.
4G\	4G/	.	4b\	4dd\
=54	=54	=54	=54	=54
1F	2c\	2a/	2cc\	4ff\
.	.	.	.	4.ff\
.	4c\	4a/	[2cc\	.
.	.	.	.	8ff\
.	[4c\	4a/	.	4ff\
=55	=55	=55	=55	=55
2C/	4c\]	2g/	2cc\]	2ee\
.	4G/	.	.	.
8D\L	4d\	2f/	[2a/	2dd\
8E\J	.	.	.	.
8F\L	4A/	.	.	.
8G\J	.	.	.	.
=56	=56	=56	=56	=56
4A\	1r	4e/	4a/]	4cc#\
4B\	.	4d/	4g/	4dd\
2A\	.	2e/	2a/	2cc#\
=57	=57	=57	=57	=57
1D	2r	1f#	2a/	2dd\
.	2a\	.	4r	4r
.	.	.	4dd\	4a/
=58	=58	=58	=58	=58
1r	4g\	4r	4ee\	8b\
.	.	.	.	8cc\
.	4f\	4a/	4ff\	4.dd\
.	2e\	4.g/	[2gg\	.
.	.	.	.	8cc#\
.	.	.	.	4cc#\
.	.	8a/	.	.
=59	=59	=59	=59	=59
2r	1d	2b\	2gg\]	2dd\
4r	.	4a/	2ff#\	4r
4d\	.	4d/	.	4a/
=60	=60	=60	=60	=60
4c\	4r	8e/	1r	4a/
.	.	8f/	.	.
4B\	4d\	4.g/	.	4b\
2A\	4e\	.	.	[2cc\
.	.	8f#/	.	.
.	4c\	4f#/	.	.
=61	=61	=61	=61	=61
1G	2e\	1g	1r	2cc\]
.	2d\	.	.	2b\
=62	=62	=62	=62	=62
1r	4.e\	4.g/	1r	4.b\
.	8c\	8g/	.	8cc\
.	8d\	8f#/	.	8a/
.	8A/	8a/	.	8cc\
.	4e\	4g#/	.	4b\
=63	=63	=63	=63	=63
4r	4A/	4a/	4r	4a/
2A\	2e\	2a/	2ee\	2cc\
4F\	4f\	4a/	4dd\	4a/
=64	=64	=64	=64	=64
4G\	4d\	4g/	4dd\	4b-\
4D\	4d\	4f/	4dd\	4a/
2A\	2e\	2e/	2cc#\	2a/
=65	=65	=65	=65	=65
1D;	1d;	1f#;	1dd;	1a;
==	==	==	==	==
*-	*-	*-	*-	*-
!!!ENC: Craig Stuart Sapp
!!!END: 2004/12/10/
